X: 22327
T: La Tramontana
R: reel
M: 4/4
K: Edorian
BEEE DEFA|B3 d edcA|BEEE DEFD|FBAF EFGA|
B3 E DEFA|B3 d edcA|EBed cA A/A/A|FBAF EFGA:|
B3 e gabe|a3 g fdBA|Be e/e/e gabe|fBde fgab|
g/g/g ge gabe|a3 g fdBA|EBed cA a/a/a|FBAF EFGA:|

